src/16/places/folder-camera.svg

<svg xmlns="http://www.w3.org/2000/svg" width="16" height="16" viewBox="0 0 16 16">
 <defs>
  <style id="current-color-scheme" type="text/css">
   .ColorScheme-Text { color:#727272; } .ColorScheme-Highlight { color:#5294e2; }
  </style>
 </defs>
 <path style="fill:currentColor" class="ColorScheme-Text" d="M 5 2 L 4 3 L 3 3 C 1 3 1 5 1 5 L 1 12 C 1 14 3 14 3 14 L 13 14 C 15 14 15 12 15 12 L 15 5 C 15 3 13 3 13 3 L 12 3 L 11 2 L 5 2 z M 8 5 C 9.6568 5 11 6.3432 11 8 C 11 9.6568 9.6568 11 8 11 C 6.3432 11 5 9.6568 5 8 C 5 6.3432 6.3432 5 8 5 z"/>
</svg>

<svg xmlns="http://www.w3.org/2000/svg" width="16" height="16"><defs><style id="current-color-scheme" type="text/css"></style></defs><path d="M5 2L4 3H3C1 3 1 5 1 5v7c0 2 2 2 2 2h10c2 0 2-2 2-2V5c0-2-2-2-2-2h-1l-1-1H5zm3 3a3 3 0 1 1 0 6 3 3 0 0 1 0-6z" fill="currentColor" color="#727272"/></svg>
